X:1
T:Eileen Alanna
L:1/16
M:2/4
I:linebreak $
K:G
V:1 treble 
V:1
 (3def | [Bg]2[Bg]2 z2 GA | BdcA BdcA | [Bg]2[Bg]2 z2 AB | cABG AFED | [Bg]2[Bg]2 z2 GA | %6
 BdcA BdcB |$ agfa gedc | BGAF G2 :: B2 | Beef gfeg | fbaf gfed | Beef gfeg | fbaf e2>B2 |$ %14
 [Be]2[Be]2 z2 [Af]2 | [Bg]2[Bg]2 z2 [Af]2 | [^db]abc' babc' | [^db]4 z2 :| %18
